packages/core/src/svgs/networks/branded/songbird.svg

<svg width="24" height="24" viewBox="0 0 24 24" fill="none" xmlns="http://www.w3.org/2000/svg">
<path d="M5 22L9.53511 13.7489L8.71029 20.8751L5 22Z" fill="#E62058"/>
<path d="M9.37769 18.0297L9.93877 13.1217L15.9494 13.9104L9.37769 18.0297Z" fill="#E62058"/>
<path d="M13.7008 8.19388L16.1574 13.6003L10.1047 12.8062L13.7008 8.19388Z" fill="#E62058"/>
<path d="M14.9838 10.2212L18.0264 8.69952L16.4104 13.3613L14.9838 10.2212Z" fill="#E62058"/>
<path d="M9.8565 12.5867L6.46232 2L13.5099 7.90227L9.8565 12.5867Z" fill="#E62058"/>
<path d="M17.5331 11.1289L18.2757 8.98616L19 12.4803L17.5331 11.1289Z" fill="#E62058"/>
</svg>

<svg xmlns="http://www.w3.org/2000/svg" width="24" height="24" fill="none" viewBox="0 0 24 24">
    <path fill="#E62058" d="m5 22 4.535-8.251-.825 7.126zm4.378-3.97.56-4.908 6.011.788zM13.7 8.194l2.457 5.406-6.052-.794zm1.284 2.027L18.026 8.7l-1.616 4.66zm-5.127 2.366L6.462 2l7.048 5.902zm7.676-1.458.743-2.143L19 12.48z"/>
</svg>
